svg/u26ce.svg

<svg viewBox="0 0 128 128" xmlns="http://www.w3.org/2000/svg">
  <circle cx="64" cy="64" r="60" fill="#0097A7"/>
  <circle cx="60.1" cy="63.1" r="56.1" fill="#00BCD4"/>
  <path d="M24,29.7c4.5-7.1,14.1-13,24.1-14.8c2.5-0.4,5-0.6,7.1,0.2 c1.6,0.6,2.9,2.1,2,3.8c-0.7,1.4-2.6,2-4.1,2.5c-9.3,3-17.9,6.4-23.1,14.3c-2,3-4.9,14.4-8.6,12.3C17.5,45.7,18.3,38.5,24,29.7z" opacity="0.3" fill="#FFFFFF" enable-background="new "/>
  <path d="M101.8,50.3c-0.8-1.6-2.5-2.6-4.3-2.6c-0.8,0-1.6,0.2-2.3,0.6l-2,1c-1.9,1-3.6,1.8-5.2,2.5V32.9 c0-2.7-1.9-5-4.4-5.2c-0.2,0-0.3,0-0.5,0c-1.3,0-2.5,0.5-3.5,1.5c-0.9,1-1.4,2.2-1.4,3.6v21.4c-0.6,0-1.1,0-1.7,0 c-2.9,0-5.9-0.4-9.3-1.3l-7.3-2c-4.2-1.1-8-1.7-11.7-1.7c-0.5,0-1.1,0-1.6,0V32.9c0-2.7-1.9-5-4.4-5.2c-0.2,0-0.3,0-0.5,0 c-1.3,0-2.5,0.5-3.5,1.5c-0.9,1-1.4,2.2-1.4,3.6V51c-3.1,1-6.2,2.3-9.6,4.1l-3,1.5c-2.2,1.2-3.3,3.9-2.5,6.3c0.7,2,2.5,3.4,4.6,3.4 c0.8,0,1.5-0.2,2.2-0.6l3.1-1.6c1.8-1,3.5-1.8,5.2-2.5V77c0,15.1,11.4,27.3,25.5,27.3S88,92.2,88,77.1V62.6c3.1-1,6.2-2.3,9.6-4.1 l2.2-1.1C102.2,56,103.1,52.8,101.8,50.3z M78.2,76.7c0,9.3-6.8,17.2-15.2,17.5c-0.2,0-0.4,0-0.6,0c-8.7,0-15.8-7.7-15.8-17.1V59.4 c0.5,0,1.1,0,1.7,0c2.9,0,5.9,0.4,9.3,1.3l7.3,2c4.2,1.1,8,1.7,11.7,1.7c0.5,0,1.1,0,1.6,0V76.7L78.2,76.7z" fill="#FAFAFA"/>
</svg>

<svg viewBox="0 0 128 128" xmlns="http://www.w3.org/2000/svg">
  <defs/>
  <path d="M124,64 A60 60 0 1 1 4,64 A60 60 0 1 1 124,64 Z" fill="#0097A7"/>
  <path d="M116.2,63.1 A56.1 56.1 0 1 1 4,63.1 A56.1 56.1 0 1 1 116.2,63.1 Z" fill="#00BCD4"/>
  <path d="M24,29.7 C28.5,22.6 38.1,16.7 48.1,14.9 C50.6,14.5 53.1,14.3 55.2,15.1 C56.8,15.7 58.1,17.2 57.2,18.9 C56.5,20.3 54.6,20.9 53.1,21.4 C43.8,24.4 35.2,27.8 30,35.7 C28,38.7 25.1,50.1 21.4,48 C17.5,45.7 18.3,38.5 24,29.7 Z" fill="#FFFFFF" opacity="0.3"/>
  <path d="M101.8,50.3 C101,48.7 99.3,47.7 97.5,47.7 C96.7,47.7 95.9,47.9 95.2,48.3 L93.2,49.3 C91.3,50.3 89.6,51.1 88,51.8 L88,32.9 C88,30.2 86.1,27.9 83.6,27.7 C83.4,27.7 83.3,27.7 83.1,27.7 C81.8,27.7 80.6,28.2 79.6,29.2 C78.7,30.2 78.2,31.4 78.2,32.8 L78.2,54.2 C77.6,54.2 77.1,54.2 76.5,54.2 C73.6,54.2 70.6,53.8 67.2,52.9 L59.9,50.9 C55.7,49.8 51.9,49.2 48.2,49.2 C47.7,49.2 47.1,49.2 46.6,49.2 L46.6,32.9 C46.6,30.2 44.7,27.9 42.2,27.7 C42,27.7 41.9,27.7 41.7,27.7 C40.4,27.7 39.2,28.2 38.2,29.2 C37.3,30.2 36.8,31.4 36.8,32.8 L36.8,51 C33.7,52 30.6,53.3 27.2,55.1 L24.2,56.6 C22,57.8 20.9,60.5 21.7,62.9 C22.4,64.9 24.2,66.3 26.3,66.3 C27.1,66.3 27.8,66.1 28.5,65.7 L31.6,64.1 C33.4,63.1 35.1,62.3 36.8,61.6 L36.8,77 C36.8,92.1 48.2,104.3 62.3,104.3 C76.4,104.3 88,92.2 88,77.1 L88,62.6 C91.1,61.6 94.2,60.3 97.6,58.5 L99.8,57.4 C102.2,56 103.1,52.8 101.8,50.3 Z M78.2,76.7 C78.2,86 71.4,93.9 63,94.2 C62.8,94.2 62.6,94.2 62.4,94.2 C53.7,94.2 46.6,86.5 46.6,77.1 L46.6,59.4 C47.1,59.4 47.7,59.4 48.3,59.4 C51.2,59.4 54.2,59.8 57.6,60.7 L64.9,62.7 C69.1,63.8 72.9,64.4 76.6,64.4 C77.1,64.4 77.7,64.4 78.2,64.4 L78.2,76.7 L78.2,76.7 Z" fill="#FAFAFA"/>
</svg>
